X: 1
T: Jimmy Bhidi Mhici's
M: 3/4
L: 1/8
R: waltz
K: Dmaj
DE|:F2G2A2|f2e2d2|F2A2A2|G4G2|
E2G2B2|g2f2e2|F3Ad2|F4DE|
F2G2A2|f2e2d2|F2A2A2|G4G2|
A,2C2E2|A,2C2E2|cB AG FE|1 D4G2:|2 D4(3EFG||
|:A4F2|A2d2c2|B4G2|B2e2d2|
c6|c2d2e2|e2de fd|A2F2G2|
A4F2|A2d2c2|B4G2|B2e2d2|
c2d2e2|g2B2c2|d2cd fe|1 d4FG:|2 d4AG||
